build/img/social/youtube.svg

<svg width="18" height="12" viewBox="0 0 18 12" fill="none" xmlns="http://www.w3.org/2000/svg">
<path d="M17.1562 1.90625C17.5312 3.21875 17.5312 6.03125 17.5312 6.03125C17.5312 6.03125 17.5312 8.8125 17.1562 10.1562C16.9688 10.9062 16.375 11.4688 15.6562 11.6562C14.3125 12 9 12 9 12C9 12 3.65625 12 2.3125 11.6562C1.59375 11.4688 1 10.9062 0.8125 10.1562C0.4375 8.8125 0.4375 6.03125 0.4375 6.03125C0.4375 6.03125 0.4375 3.21875 0.8125 1.90625C1 1.15625 1.59375 0.5625 2.3125 0.375C3.65625 0 9 0 9 0C9 0 14.3125 0 15.6562 0.375C16.375 0.5625 16.9688 1.15625 17.1562 1.90625ZM7.25 8.5625L11.6875 6.03125L7.25 3.5V8.5625Z" fill="#707070"/>
</svg>

<svg width="18" height="12" fill="none" xmlns="http://www.w3.org/2000/svg"><path d="M17.156 1.906c.375 1.313.375 4.125.375 4.125s0 2.782-.375 4.125a2.084 2.084 0 01-1.5 1.5C14.312 12 9 12 9 12s-5.344 0-6.688-.344a2.084 2.084 0 01-1.5-1.5C.438 8.812.438 6.031.438 6.031s0-2.812.376-4.125a2.126 2.126 0 011.5-1.531C3.655 0 9 0 9 0s5.313 0 6.656.375a2.126 2.126 0 011.5 1.531zM7.25 8.563l4.438-2.532L7.25 3.5v5.063z" fill="#707070"/></svg>
